!!!SOCIAL_FUNCTION:	bird dance songs
!!!PDT:	1956
!!!OTL: No_113_Hinata_Dance_Song_(i).krn
!!!LANG: Non-Tone
!!!LING_GROUP: Muskogean
!!!REG: Florida
**kern
*staff1
=1-
*clefF4
*k[b-e-]
*M3/4
4.r
8c\
16c\LL
16c\J
8G\J
=2!|:
4B-\
8c\L
16G\L
16G\JJ
8B-\L
8G;\J
=3
4F;\
8F\L
8F\J
16F\LL
16D\
16D\
16C\JJ
=4
4BB-/
8BB-/L
8BB-/J
8BB-/L
8F/J
=5
4G\
(8.G\L
16D\Jk)
8.G\L
16D\Jk
=6||
*M2/4
4.F\
8r
=7
8F\L
8F\J
16F\LL
16D\
16D\
16C\JJ
=8||
*M3/4
8BB-/L
8BB-/J
8r
8c\
16c\LL
16c\J
8G\J
=9:|!
*M2/4
2BB-/
==
*-
